!!!COM: Guillaume Faugues
!!!OTL: Fau1011a-Missa_My_Chicken-Kyrie
**kern	**kern	**kern	**kern	**kern
*part5	*part4	*part3	*part2	*part1
*staff5	*staff4	*staff3	*staff2	*staff1
*Ivox	*Ivox	*Ivox	*Ivox	*Ivox
*I"Bassus	*I"Tenor II	*I"Tenor I	*I"Altus	*I"Superius
*I'B	*I'T	*I'T	*I'A	*I'S
*clefF4	*clefGv2	*clefGv2	*clefGv2	*clefG2
*k[b-]	*k[b-]	*k[b-]	*k[b-]	*k[b-]
*F:	*F:	*F:	*F:	*F:
*M2/1	*M2/1	*M2/1	*M2/1	*M2/1
*met(C|)	*met(C|)	*met(C|)	*met(C|)	*met(C|)
=1	=1	=1	=1	=1
!	!	!LO:TX:a:t=Canon at the lower 5th (T1→T2, 2 breves)	!	!
*MM300	*MM300	*MM300	*MM300	*MM300
!	!	!	!	!LO:TX:a:t=[whole]=75
0r	0r	0r	1.F	0r
.	.	.	2G	.
=2	=2	=2	=2	=2
0r	0r	0r	1A	1.f
.	.	.	1B-	.
.	.	.	.	2g
=3	=3	=3	=3	=3
0F	0r	0r	1c	1a
.	.	.	[1d	1a
=4	=4	=4	=4	=4
1G	0r	0r	1d]	1b-
1G	.	.	1e	1b-
=5	=5	=5	=5	=5
1.F	0r	1.c	1f	1a
.	.	.	2f	1f
4E	.	2d	[2c	.
4D	.	.	.	.
=6	=6	=6	=6	=6
0C	0r	1e	4c]	0g
.	.	.	4B-	.
.	.	.	2A	.
.	.	1e	2G	.
.	.	.	2c	.
=7	=7	=7	=7	=7
1D	1.F	1f	2A	1f
.	.	.	2.d	.
1BB-	.	1f	.	1d
.	.	.	4c	.
.	2G	.	[2A	.
=8	=8	=8	=8	=8
1C	1A	0e	4A]	0c
.	.	.	4G	.
.	.	.	2F	.
1AA	1A	.	2E	.
.	.	.	2F	.
=9	=9	=9	=9	=9
0GG	1B-	0r	1D	1r
.	1B-	.	2E	1g
.	.	.	2r	.
=10	=10	=10	=10	=10
1FF	0A	1.c	0F	1a
[1F	.	.	.	1f
.	.	2B-	.	.
=11	=11	=11	=11	=11
2F]	0r	1A	0r	1.cc
4E	.	.	.	.
4D	.	.	.	.
1E	.	1G	.	.
.	.	.	.	2b-
=12	=12	=12	=12	=12
1.F	1.F	0r	1.c	1.a
2C	2E	.	4B-	2g
.	.	.	4A	.
=13	=13	=13	=13	=13
1F	1D	0r	1B-	1f
1G	1C	.	1c	1e
=14	=14	=14	=14	=14
1F	0r	1.c	1.A	0f
1D	.	.	.	.
.	.	2d	2F	.
=15	=15	=15	=15	=15
0C	0r	1e	(0c	0g
.	.	1e	.	.
=16	=16	=16	=16	=16
0FF	1.F	1f	(0c)	1.a
.	.	1f	.	.
.	2G	.	.	2b-
=17	=17	=17	=17	=17
0r	1A	1.e	0c)	0cc
.	1A	.	.	.
.	.	2c	.	.
=18	=18	=18	=18	=18
1r	1B-	1d	0r	1f
1GG	1B-	1d	.	1g
=19	=19	=19	=19	=19
1AA	1.A	[0c	0r	2c
.	.	.	.	2.f
1FF	.	.	.	.
.	.	.	.	4g
.	2G	.	.	2a
=20	=20	=20	=20	=20
0C	1A	0c]	0r	4b-
.	.	.	.	4a
.	.	.	.	4g
.	.	.	.	4f
.	1A	.	.	2.e
.	.	.	.	4d
=21	=21	=21	=21	=21
1.D	[0F	0r	0A	0f
2C	.	.	.	.
=22	=22	=22	=22	=22
1BB-	0F]	1r	1B-	1r
1AA	.	1c	1c	1f
=23	=23	=23	=23	=23
1.GG	0r	1.B-	2d	1.g
.	.	.	2.B-	.
.	.	.	4A	.
2AA	.	2c	2G	[2b-
=24	=24	=24	=24	=24
1BB-	1r	1d	1F	2b-]
.	.	.	.	4a
.	.	.	.	4g
1BB-	1F	1d	1B-	2f
.	.	.	.	2d
=25	=25	=25	=25	=25
[0C	1.E	0c	2A	2.e
.	.	.	2.G	.
.	.	.	.	4f
.	.	.	.	[1g
.	.	.	4F	.
.	2F	.	4E	.
.	.	.	4D	.
=26	=26	=26	=26	=26
0C]	1G	0r	1E	1g]
.	1G	.	1E	[1c
=27	=27	=27	=27	=27
0FF	0F	1r	2F	1c]
.	.	.	2.A	.
.	.	1c	.	[1f
.	.	.	4G	.
.	.	.	4A	.
.	.	.	4B-	.
=28	=28	=28	=28	=28
1r	0r	1f	1c	2f]
.	.	.	.	2g
1FF	.	1f	1c	1a
=29	=29	=29	=29	=29
1.BB-	1r	1.f	2F	1.d
.	.	.	1B-	.
.	1F	.	.	.
2AA	.	2e	4A	2c
.	.	.	4G	.
=30	=30	=30	=30	=30
1.BB-	1B-	1.d	0F	2d
.	.	.	.	2e
.	1B-	.	.	[1f
2C	.	2e	.	.
=31	=31	=31	=31	=31
2D	1.B-	0f	0r	2f]
2.BB-	.	.	.	2e
.	.	.	.	1d
4C	.	.	.	.
2D	2A	.	.	.
=32	=32	=32	=32	=32
0E-Xi	1.G	0g	0r	0c
.	2A	.	.	.
=33	=33	=33	=33	=33
0D	0B-	1r	0r	0d
.	.	1f	.	.
=34	=34	=34	=34	=34
0C	0c	1e	1G	1r
.	.	1c	1E	[1g
=35	=35	=35	=35	=35
1.GG	1r	0d	1D	2g]
.	.	.	.	2f
.	1B-	.	1G	2.d
2BB-	.	.	.	.
.	.	.	.	4e
=36	=36	=36	=36	=36
2FF	1A	0c	1.A	2.f
2.F	.	.	.	.
.	.	.	.	4e
.	1F	.	.	4f
4E	.	.	.	4g
4D	.	.	4B-	2a
4C	.	.	4c	.
=37	=37	=37	=37	=37
2.BB-	0G	0r	1d	4b-
.	.	.	.	4a
.	.	.	.	4g
4AA	.	.	.	4f
1C	.	.	[1c	1e
=38	=38	=38	=38	=38
1FF	0F	1r	2c]	1r
.	.	.	2.A	.
1AA	.	1c	.	1f
.	.	.	4B-	.
.	.	.	2c	.
=39	=39	=39	=39	=39
1BB-	0r	1d	2.B-	1g
.	.	.	4A	.
1C	.	1e	1G	1g
=40	=40	=40	=40	=40
0FF	1r	1.f	2.F	2a
.	.	.	.	4b-
.	.	.	4G	4cc
.	1F	.	1A	2dd
.	.	2e	.	[2cc
=41	=41	=41	=41	=41
1r	1G	1d	4B-	2cc]
.	.	.	4A	.
.	.	.	4G	2b-
.	.	.	4F	.
1C	1A	1c	1E	2cc
.	.	.	.	2a
=42	=42	=42	=42	=42
2BB-	1.B-	0d	1D	1.g
2.GG	.	.	.	.
.	.	.	1G	.
4AA	.	.	.	.
2BB-	2A	.	.	2f
=43	=43	=43	=43	=43
1C	1G	[0c	2r	2.e
.	.	.	2G	.
.	.	.	.	8fL
.	.	.	.	8gJ
2AA	1F	.	1A	2c
2FF	.	.	.	[2f
=44	=44	=44	=44	=44
1C	0G	(0c]	2G	2f]
.	.	.	2.c	4e
.	.	.	.	4d
1C	.	.	.	2.e
.	.	.	8B-L	.
.	.	.	8AJ	.
.	.	.	2G	.
.	.	.	.	4d
=45	=45	=45	=45	=45
0FFl	0Fl	0c)l	0Al	0fl
==	==	==	==	==
*-	*-	*-	*-	*-
!!!RDF**kern: l=long note in original notation
!!!system-decoration: s1,s2,s3,s4,s5
!!!RDF**kern: i = editorial accidental
!!!ENC: Ory, Benjamin
!!!END: 2020/12/14
!!!COM: Faugues, Guillaume
